assets/img/braze_icons/save-02.svg

<svg fill="none" height="24" viewBox="0 0 24 24" width="24" xmlns="http://www.w3.org/2000/svg"><path clip-rule="evenodd" d="m15.8719 2.08299c-.3484-.08365-.7072-.08332-1.1141-.08294l-6.9991.00005c-.80497-.00001-1.46933-.00002-2.01052.0442-.5621.04592-1.07881.14448-1.56414.39178-.75265.38349-1.36457.99541-1.74806 1.74806-.2473.48534-.34586 1.00204-.39179 1.56414-.04421.54119-.0442 1.20554-.04419 2.01051v8.48261c-.00001.805-.00002 1.4693.04419 2.0105.04593.5621.14449 1.0788.39179 1.5642.38349.7526.99541 1.3645 1.74806 1.748.48533.2473 1.00204.3459 1.56414.3918.54118.0442 1.20554.0442 2.0105.0442h8.48262c.805 0 1.4693 0 2.0105-.0442.5621-.0459 1.0788-.1445 1.5642-.3918.7526-.3835 1.3645-.9954 1.748-1.748.2473-.4854.3459-1.0021.3918-1.5642.0442-.5412.0442-1.2055.0442-2.0105l.0001-6.99911c.0003-.4069.0007-.76565-.083-1.1141-.0735-.30611-.1947-.59874-.3592-.86716-.1872-.30554-.4411-.55898-.7291-.84643l-3.2433-3.24329c-.2875-.28798-.5409-.54189-.8464-.72913-.2684-.16448-.5611-.2857-.8672-.35919zm-8.87189 1.91701c.55228 0 1 .44772 1 1v2h8.99999c.5523 0 1 .44772 1 1s-.4477 1-1 1h-8.43189c-.25238.00003-.49818.00006-.70633-.01695-.2286-.01867-.49833-.06274-.76976-.20104-.37632-.19174-.68228-.4977-.87403-.87403-.13829-.27142-.18236-.54116-.20104-.76975-.01701-.20815-.01698-.45394-.01695-.70632l.00001-1.43191c0-.55228.44771-1 1-1zm8.39999 9h-6.8c-.56005 0-.84008 0-1.05399.109-.18816.0959-.34114.2488-.43702.437-.10899.2139-.10899.4939-.10899 1.054v5.4h10v-5.4c0-.5601 0-.8401-.109-1.054-.0959-.1882-.2488-.3411-.437-.437-.2139-.109-.4939-.109-1.054-.109z" fill="#801ed7" fill-rule="evenodd"/></svg>

<svg width="24" height="24" viewBox="0 0 24 24" fill="none" xmlns="http://www.w3.org/2000/svg">
<path fill-rule="evenodd" clip-rule="evenodd" d="M15.8719 2.08299C15.5235 1.99934 15.1647 1.99967 14.7578 2.00005L7.7587 2.0001C6.95373 2.00009 6.28937 2.00008 5.74818 2.0443C5.18608 2.09022 4.66937 2.18878 4.18404 2.43608C3.43139 2.81957 2.81947 3.43149 2.43598 4.18414C2.18868 4.66948 2.09012 5.18618 2.04419 5.74828C1.99998 6.28947 1.99999 6.95382 2 7.75879V16.2414C1.99999 17.0464 1.99998 17.7107 2.04419 18.2519C2.09012 18.814 2.18868 19.3307 2.43598 19.8161C2.81947 20.5687 3.43139 21.1806 4.18404 21.5641C4.66937 21.8114 5.18608 21.91 5.74818 21.9559C6.28936 22.0001 6.95372 22.0001 7.75868 22.0001H16.2413C17.0463 22.0001 17.7106 22.0001 18.2518 21.9559C18.8139 21.91 19.3306 21.8114 19.816 21.5641C20.5686 21.1806 21.1805 20.5687 21.564 19.8161C21.8113 19.3307 21.9099 18.814 21.9558 18.2519C22 17.7107 22 17.0464 22 16.2414L22.0001 9.24229C22.0004 8.83539 22.0008 8.47664 21.9171 8.12819C21.8436 7.82208 21.7224 7.52945 21.5579 7.26103C21.3707 6.95549 21.1168 6.70205 20.8288 6.4146L17.5855 3.17131C17.298 2.88333 17.0446 2.62942 16.7391 2.44218C16.4707 2.2777 16.178 2.15648 15.8719 2.08299ZM7.00001 4C7.55229 4 8.00001 4.44772 8.00001 5V7H17C17.5523 7 18 7.44772 18 8C18 8.55228 17.5523 9 17 9L8.56811 9C8.31573 9.00003 8.06993 9.00006 7.86178 8.98305C7.63318 8.96438 7.36345 8.92031 7.09202 8.78201C6.7157 8.59027 6.40974 8.28431 6.21799 7.90798C6.0797 7.63656 6.03563 7.36682 6.01695 7.13823C5.99994 6.93008 5.99997 6.68429 6 6.43191L6.00001 5C6.00001 4.44772 6.44772 4 7.00001 4ZM15.4 13H8.6C8.03995 13 7.75992 13 7.54601 13.109C7.35785 13.2049 7.20487 13.3578 7.10899 13.546C7 13.7599 7 14.0399 7 14.6V20H17V14.6C17 14.0399 17 13.7599 16.891 13.546C16.7951 13.3578 16.6422 13.2049 16.454 13.109C16.2401 13 15.9601 13 15.4 13Z" fill="#801ED7"/>
</svg>
